X: 42875
T: Wild Swans At Coole, The
R: reel
M: 4/4
K: Ddorian
Ade/d/c d2AB|c3G EFGE|DA,A,A, CA,A,A,|FEDB, CA,G,_B,|
A,2FE FEDC|A,B,CD E/F/GAB|cde/^f/g agfa|gece d3c:|
d2Ad fgaf|eccc efge|d2Ad fgaf|gfaf eddc|
defg a_bag|edcA c3d|eaag e/f/ge|dcAG ED3:|

